dist/images/ignore/icon-saved.svg

<svg xmlns="http://www.w3.org/2000/svg" width="16" height="16" viewBox="0 0 16 16"><path d="M13 0h-11c-1.1 0-2 .9-2 2v12c0 1.1.9 2 2 2h12c1.1 0 2-.9 2-2v-11l-3-3zm1 14h-12v-12h11l1 1v11zm-11-6h8v5h-8zm4-5h-3v3h7v-3h-4zm3 2h-3v-1h3v1zm2 7h1v1h-1z" fill="#fff"/></svg>

<svg xmlns="http://www.w3.org/2000/svg" width="16" height="16" viewBox="0 0 16 16"><path d="M13 0H2C.9 0 0 .9 0 2v12c0 1.1.9 2 2 2h12c1.1 0 2-.9 2-2V3l-3-3zm1 14H2V2h11l1 1v11zM3 8h8v5H3zm4-5H4v3h7V3H7zm3 2H7V4h3v1zm2 7h1v1h-1z" fill="#fff"/></svg>
